images/5953849.svg

<?xml version="1.0" encoding="UTF-8"?>
<svg xmlns="http://www.w3.org/2000/svg" xmlns:xlink="http://www.w3.org/1999/xlink" width="300pt" height="300pt" viewBox="0 0 300 300" version="1.1">
<defs>
<g>
<symbol overflow="visible" id="glyph0-0">
<path style="stroke:none;" d="M 0.453125 1.59375 L 0.453125 -6.34375 L 4.953125 -6.34375 L 4.953125 1.59375 Z M 0.953125 1.09375 L 4.453125 1.09375 L 4.453125 -5.84375 L 0.953125 -5.84375 Z M 0.953125 1.09375 "/>
</symbol>
<symbol overflow="visible" id="glyph0-1">
<path style="stroke:none;" d="M 3.546875 -5.953125 C 2.898438 -5.953125 2.382812 -5.710938 2 -5.234375 C 1.625 -4.753906 1.4375 -4.101562 1.4375 -3.28125 C 1.4375 -2.445312 1.625 -1.789062 2 -1.3125 C 2.382812 -0.832031 2.898438 -0.59375 3.546875 -0.59375 C 4.191406 -0.59375 4.703125 -0.832031 5.078125 -1.3125 C 5.453125 -1.789062 5.640625 -2.445312 5.640625 -3.28125 C 5.640625 -4.101562 5.453125 -4.753906 5.078125 -5.234375 C 4.703125 -5.710938 4.191406 -5.953125 3.546875 -5.953125 Z M 3.546875 -6.6875 C 4.460938 -6.6875 5.195312 -6.375 5.75 -5.75 C 6.300781 -5.132812 6.578125 -4.3125 6.578125 -3.28125 C 6.578125 -2.238281 6.300781 -1.410156 5.75 -0.796875 C 5.195312 -0.179688 4.460938 0.125 3.546875 0.125 C 2.617188 0.125 1.878906 -0.179688 1.328125 -0.796875 C 0.773438 -1.410156 0.5 -2.238281 0.5 -3.28125 C 0.5 -4.3125 0.773438 -5.132812 1.328125 -5.75 C 1.878906 -6.375 2.617188 -6.6875 3.546875 -6.6875 Z M 3.546875 -6.6875 "/>
</symbol>
<symbol overflow="visible" id="glyph0-2">
<path style="stroke:none;" d="M 0.890625 -6.5625 L 1.765625 -6.5625 L 1.765625 -3.875 L 5 -3.875 L 5 -6.5625 L 5.890625 -6.5625 L 5.890625 0 L 5 0 L 5 -3.125 L 1.765625 -3.125 L 1.765625 0 L 0.890625 0 Z M 0.890625 -6.5625 "/>
</symbol>
</g>
</defs>
<g id="surface50685">
<rect x="0" y="0" width="300" height="300" style="fill:rgb(100%,100%,100%);fill-opacity:1;stroke:none;"/>
<path style="fill:none;stroke-width:1.2;stroke-linecap:butt;stroke-linejoin:miter;stroke:rgb(0%,0%,0%);stroke-opacity:1;stroke-miterlimit:10;" d="M 35.25 177.710938 L 45.921875 183.261719 "/>
<path style="fill:none;stroke-width:1.2;stroke-linecap:butt;stroke-linejoin:miter;stroke:rgb(100%,0%,0%);stroke-opacity:1;stroke-miterlimit:10;" d="M 45.921875 183.261719 L 56.597656 188.808594 "/>
<path style="fill:none;stroke-width:1.2;stroke-linecap:butt;stroke-linejoin:miter;stroke:rgb(100%,0%,0%);stroke-opacity:1;stroke-miterlimit:10;" d="M 56.597656 188.808594 L 66.738281 182.339844 "/>
<path style="fill:none;stroke-width:1.2;stroke-linecap:butt;stroke-linejoin:miter;stroke:rgb(0%,0%,0%);stroke-opacity:1;stroke-miterlimit:10;" d="M 66.738281 182.339844 L 76.878906 175.875 "/>
<path style=" stroke:none;fill-rule:nonzero;fill:rgb(100%,100%,100%);fill-opacity:1;" d="M 52.597656 183.308594 L 60.597656 183.308594 L 60.597656 194.308594 L 52.597656 194.308594 Z M 52.597656 183.308594 "/>
<g style="fill:rgb(100%,0%,0%);fill-opacity:1;">
  <use xlink:href="#glyph0-1" x="52.597656" y="191.97168"/>
</g>
<path style="fill:none;stroke-width:1.2;stroke-linecap:butt;stroke-linejoin:miter;stroke:rgb(0%,0%,0%);stroke-opacity:1;stroke-miterlimit:10;" d="M 76.878906 175.875 L 75.820312 151.835938 "/>
<path style="fill:none;stroke-width:1.2;stroke-linecap:butt;stroke-linejoin:miter;stroke:rgb(0%,0%,0%);stroke-opacity:1;stroke-miterlimit:10;" d="M 82.429688 173.21875 L 81.582031 153.992188 "/>
<path style="fill:none;stroke-width:1.2;stroke-linecap:butt;stroke-linejoin:miter;stroke:rgb(0%,0%,0%);stroke-opacity:1;stroke-miterlimit:10;" d="M 98.226562 186.972656 L 76.878906 175.875 "/>
<path style="fill:none;stroke-width:1.2;stroke-linecap:butt;stroke-linejoin:miter;stroke:rgb(0%,0%,0%);stroke-opacity:1;stroke-miterlimit:10;" d="M 75.820312 151.835938 L 96.105469 138.902344 "/>
<path style="fill:none;stroke-width:1.2;stroke-linecap:butt;stroke-linejoin:miter;stroke:rgb(0%,0%,0%);stroke-opacity:1;stroke-miterlimit:10;" d="M 75.820312 151.835938 L 65.148438 146.289062 "/>
<path style="fill:none;stroke-width:1.2;stroke-linecap:butt;stroke-linejoin:miter;stroke:rgb(100%,0%,0%);stroke-opacity:1;stroke-miterlimit:10;" d="M 65.148438 146.289062 L 54.472656 140.738281 "/>
<path style="fill:none;stroke-width:1.2;stroke-linecap:butt;stroke-linejoin:miter;stroke:rgb(0%,0%,0%);stroke-opacity:1;stroke-miterlimit:10;" d="M 96.105469 138.902344 L 117.449219 150 "/>
<path style="fill:none;stroke-width:1.2;stroke-linecap:butt;stroke-linejoin:miter;stroke:rgb(0%,0%,0%);stroke-opacity:1;stroke-miterlimit:10;" d="M 95.628906 145.035156 L 112.703125 153.914062 "/>
<path style="fill:none;stroke-width:1.2;stroke-linecap:butt;stroke-linejoin:miter;stroke:rgb(0%,0%,0%);stroke-opacity:1;stroke-miterlimit:10;" d="M 117.449219 150 L 118.511719 174.035156 "/>
<path style="fill:none;stroke-width:1.2;stroke-linecap:butt;stroke-linejoin:miter;stroke:rgb(0%,0%,0%);stroke-opacity:1;stroke-miterlimit:10;" d="M 117.449219 150 L 137.734375 137.0625 "/>
<path style="fill:none;stroke-width:1.2;stroke-linecap:butt;stroke-linejoin:miter;stroke:rgb(0%,0%,0%);stroke-opacity:1;stroke-miterlimit:10;" d="M 118.511719 174.035156 L 98.226562 186.972656 "/>
<path style="fill:none;stroke-width:1.2;stroke-linecap:butt;stroke-linejoin:miter;stroke:rgb(0%,0%,0%);stroke-opacity:1;stroke-miterlimit:10;" d="M 113.4375 170.554688 L 97.210938 180.90625 "/>
<path style="fill:none;stroke-width:1.2;stroke-linecap:butt;stroke-linejoin:miter;stroke:rgb(0%,0%,0%);stroke-opacity:1;stroke-miterlimit:10;" d="M 137.734375 137.0625 L 159.082031 148.164062 "/>
<path style="fill:none;stroke-width:1.2;stroke-linecap:butt;stroke-linejoin:miter;stroke:rgb(0%,0%,0%);stroke-opacity:1;stroke-miterlimit:10;" d="M 137.257812 143.195312 L 154.335938 152.074219 "/>
<path style="fill:none;stroke-width:1.2;stroke-linecap:butt;stroke-linejoin:miter;stroke:rgb(0%,0%,0%);stroke-opacity:1;stroke-miterlimit:10;" d="M 159.082031 148.164062 L 179.367188 135.226562 "/>
<path style="fill:none;stroke-width:1.2;stroke-linecap:butt;stroke-linejoin:miter;stroke:rgb(0%,0%,0%);stroke-opacity:1;stroke-miterlimit:10;" d="M 182.195312 135.101562 L 181.664062 123.082031 "/>
<path style="fill:none;stroke-width:1.2;stroke-linecap:butt;stroke-linejoin:miter;stroke:rgb(100%,0%,0%);stroke-opacity:1;stroke-miterlimit:10;" d="M 181.664062 123.082031 L 181.132812 111.066406 "/>
<path style="fill:none;stroke-width:1.2;stroke-linecap:butt;stroke-linejoin:miter;stroke:rgb(0%,0%,0%);stroke-opacity:1;stroke-miterlimit:10;" d="M 176.539062 135.351562 L 176.007812 123.332031 "/>
<path style="fill:none;stroke-width:1.2;stroke-linecap:butt;stroke-linejoin:miter;stroke:rgb(100%,0%,0%);stroke-opacity:1;stroke-miterlimit:10;" d="M 176.007812 123.332031 L 175.476562 111.316406 "/>
<path style="fill:none;stroke-width:1.2;stroke-linecap:butt;stroke-linejoin:miter;stroke:rgb(0%,0%,0%);stroke-opacity:1;stroke-miterlimit:10;" d="M 179.367188 135.226562 L 200.710938 146.324219 "/>
<path style=" stroke:none;fill-rule:nonzero;fill:rgb(100%,100%,100%);fill-opacity:1;" d="M 174.304688 105.691406 L 182.304688 105.691406 L 182.304688 116.691406 L 174.304688 116.691406 Z M 174.304688 105.691406 "/>
<g style="fill:rgb(100%,0%,0%);fill-opacity:1;">
  <use xlink:href="#glyph0-1" x="174.304688" y="114.354492"/>
</g>
<path style="fill:none;stroke-width:1.2;stroke-linecap:butt;stroke-linejoin:miter;stroke:rgb(0%,0%,0%);stroke-opacity:1;stroke-miterlimit:10;" d="M 200.710938 146.324219 L 201.773438 170.359375 "/>
<path style="fill:none;stroke-width:1.2;stroke-linecap:butt;stroke-linejoin:miter;stroke:rgb(0%,0%,0%);stroke-opacity:1;stroke-miterlimit:10;" d="M 206.472656 148.480469 L 207.324219 167.707031 "/>
<path style="fill:none;stroke-width:1.2;stroke-linecap:butt;stroke-linejoin:miter;stroke:rgb(0%,0%,0%);stroke-opacity:1;stroke-miterlimit:10;" d="M 220.996094 133.386719 L 200.710938 146.324219 "/>
<path style="fill:none;stroke-width:1.2;stroke-linecap:butt;stroke-linejoin:miter;stroke:rgb(0%,0%,0%);stroke-opacity:1;stroke-miterlimit:10;" d="M 201.773438 170.359375 L 223.121094 181.460938 "/>
<path style="fill:none;stroke-width:1.2;stroke-linecap:butt;stroke-linejoin:miter;stroke:rgb(0%,0%,0%);stroke-opacity:1;stroke-miterlimit:10;" d="M 201.773438 170.359375 L 191.628906 176.828125 "/>
<path style="fill:none;stroke-width:1.2;stroke-linecap:butt;stroke-linejoin:miter;stroke:rgb(100%,0%,0%);stroke-opacity:1;stroke-miterlimit:10;" d="M 191.628906 176.828125 L 181.488281 183.296875 "/>
<path style="fill:none;stroke-width:1.2;stroke-linecap:butt;stroke-linejoin:miter;stroke:rgb(0%,0%,0%);stroke-opacity:1;stroke-miterlimit:10;" d="M 223.121094 181.460938 L 243.402344 168.523438 "/>
<path style="fill:none;stroke-width:1.2;stroke-linecap:butt;stroke-linejoin:miter;stroke:rgb(0%,0%,0%);stroke-opacity:1;stroke-miterlimit:10;" d="M 222.105469 175.390625 L 238.332031 165.042969 "/>
<path style="fill:none;stroke-width:1.2;stroke-linecap:butt;stroke-linejoin:miter;stroke:rgb(0%,0%,0%);stroke-opacity:1;stroke-miterlimit:10;" d="M 243.402344 168.523438 L 242.34375 144.488281 "/>
<path style="fill:none;stroke-width:1.2;stroke-linecap:butt;stroke-linejoin:miter;stroke:rgb(0%,0%,0%);stroke-opacity:1;stroke-miterlimit:10;" d="M 243.402344 168.523438 L 254.078125 174.070312 "/>
<path style="fill:none;stroke-width:1.2;stroke-linecap:butt;stroke-linejoin:miter;stroke:rgb(100%,0%,0%);stroke-opacity:1;stroke-miterlimit:10;" d="M 254.078125 174.070312 L 264.75 179.621094 "/>
<path style="fill:none;stroke-width:1.2;stroke-linecap:butt;stroke-linejoin:miter;stroke:rgb(0%,0%,0%);stroke-opacity:1;stroke-miterlimit:10;" d="M 242.34375 144.488281 L 220.996094 133.386719 "/>
<path style="fill:none;stroke-width:1.2;stroke-linecap:butt;stroke-linejoin:miter;stroke:rgb(0%,0%,0%);stroke-opacity:1;stroke-miterlimit:10;" d="M 237.597656 148.398438 L 220.519531 139.519531 "/>
<path style=" stroke:none;fill-rule:nonzero;fill:rgb(100%,100%,100%);fill-opacity:1;" d="M 257.75 174.121094 L 272.75 174.121094 L 272.75 185.121094 L 257.75 185.121094 Z M 257.75 174.121094 "/>
<g style="fill:rgb(100%,0%,0%);fill-opacity:1;">
  <use xlink:href="#glyph0-1" x="257.75" y="182.78418"/>
  <use xlink:href="#glyph0-2" x="265.091797" y="182.78418"/>
</g>
<path style=" stroke:none;fill-rule:nonzero;fill:rgb(100%,100%,100%);fill-opacity:1;" d="M 166.488281 177.796875 L 181.488281 177.796875 L 181.488281 188.796875 L 166.488281 188.796875 Z M 166.488281 177.796875 "/>
<g style="fill:rgb(100%,0%,0%);fill-opacity:1;">
  <use xlink:href="#glyph0-2" x="166.488281" y="186.459961"/>
  <use xlink:href="#glyph0-1" x="173.50293" y="186.459961"/>
</g>
<path style="fill:none;stroke-width:1.2;stroke-linecap:butt;stroke-linejoin:miter;stroke:rgb(100%,0%,0%);stroke-opacity:1;stroke-miterlimit:10;" d="M 54.472656 140.738281 L 53.945312 128.722656 "/>
<path style="fill:none;stroke-width:1.2;stroke-linecap:butt;stroke-linejoin:miter;stroke:rgb(0%,0%,0%);stroke-opacity:1;stroke-miterlimit:10;" d="M 53.945312 128.722656 L 53.414062 116.703125 "/>
<path style=" stroke:none;fill-rule:nonzero;fill:rgb(100%,100%,100%);fill-opacity:1;" d="M 50.472656 135.238281 L 58.472656 135.238281 L 58.472656 146.238281 L 50.472656 146.238281 Z M 50.472656 135.238281 "/>
<g style="fill:rgb(100%,0%,0%);fill-opacity:1;">
  <use xlink:href="#glyph0-1" x="50.472656" y="143.901367"/>
</g>
</g>
</svg>

<svg xmlns="http://www.w3.org/2000/svg" xmlns:xlink="http://www.w3.org/1999/xlink" width="300pt" height="300pt" viewBox="0 0 300 300"><defs><symbol overflow="visible"><path d="M.453 1.594v-7.938h4.5v7.938zm.5-.5h3.5v-6.938h-3.5zm0 0"/></symbol><symbol overflow="visible" id="a"><path d="M3.547-5.953c-.65 0-1.164.242-1.547.72-.375.48-.563 1.13-.563 1.952 0 .835.188 1.49.563 1.967.383.48.898.72 1.547.72.644 0 1.156-.24 1.53-.72.376-.476.564-1.132.564-1.968 0-.822-.187-1.474-.562-1.954-.375-.477-.887-.72-1.53-.72zm0-.734c.914 0 1.648.312 2.203.937.55.617.828 1.438.828 2.47 0 1.042-.277 1.87-.828 2.483-.555.617-1.29.922-2.203.922-.93 0-1.668-.305-2.22-.922C.774-1.41.5-2.237.5-3.28c0-1.033.273-1.853.828-2.47.55-.625 1.29-.938 2.22-.938zm0 0"/></symbol><symbol overflow="visible" id="b"><path d="M.89-6.563h.876v2.688H5v-2.688h.89V0H5v-3.125H1.766V0H.89zm0 0"/></symbol></defs><g><path fill="#fff" d="M0 0h300v300H0z"/><path d="M35.25 177.71l10.672 5.552" stroke-width="1.2" stroke="#000" stroke-miterlimit="10" fill="none"/><path d="M45.922 183.262l10.676 5.547M56.598 188.81l10.14-6.47" stroke-width="1.2" stroke="#f00" stroke-miterlimit="10" fill="none"/><path d="M66.738 182.34l10.14-6.465" stroke-width="1.2" stroke="#000" stroke-miterlimit="10" fill="none"/><path d="M52.598 183.31h8v11h-8zm0 0" fill="#fff"/><use xlink:href="#a" x="52.598" y="191.972" fill="#f00"/><path d="M76.88 175.875l-1.06-24.04M82.43 173.22l-.848-19.228M98.227 186.973L76.88 175.875M75.82 151.836l20.285-12.934M75.82 151.836l-10.672-5.547" stroke-width="1.2" stroke="#000" stroke-miterlimit="10" fill="none"/><path d="M65.148 146.29l-10.675-5.552" stroke-width="1.2" stroke="#f00" stroke-miterlimit="10" fill="none"/><path d="M96.105 138.902L117.45 150M95.63 145.035l17.073 8.88M117.45 150l1.062 24.035M117.45 150l20.284-12.938M118.512 174.035l-20.285 12.938M113.438 170.555l-16.227 10.35M137.734 137.063l21.348 11.1M137.258 143.195l17.078 8.88M159.082 148.164l20.285-12.937M182.195 135.102l-.53-12.02" stroke-width="1.2" stroke="#000" stroke-miterlimit="10" fill="none"/><path d="M181.664 123.082l-.53-12.016" stroke-width="1.2" stroke="#f00" stroke-miterlimit="10" fill="none"/><path d="M176.54 135.352l-.532-12.02" stroke-width="1.2" stroke="#000" stroke-miterlimit="10" fill="none"/><path d="M176.008 123.332l-.53-12.016" stroke-width="1.2" stroke="#f00" stroke-miterlimit="10" fill="none"/><path d="M179.367 135.227l21.344 11.097" stroke-width="1.2" stroke="#000" stroke-miterlimit="10" fill="none"/><path d="M174.305 105.69h8v11h-8zm0 0" fill="#fff"/><use xlink:href="#a" x="174.305" y="114.354" fill="#f00"/><path d="M200.71 146.324l1.063 24.035M206.473 148.48l.85 19.227M220.996 133.387l-20.285 12.937M201.773 170.36l21.348 11.1M201.773 170.36l-10.144 6.468" stroke-width="1.2" stroke="#000" stroke-miterlimit="10" fill="none"/><path d="M191.63 176.828l-10.142 6.47" stroke-width="1.2" stroke="#f00" stroke-miterlimit="10" fill="none"/><path d="M223.12 181.46l20.282-12.937M222.105 175.39l16.227-10.347M243.402 168.523l-1.058-24.035M243.402 168.523l10.676 5.547" stroke-width="1.2" stroke="#000" stroke-miterlimit="10" fill="none"/><path d="M254.078 174.07l10.672 5.55" stroke-width="1.2" stroke="#f00" stroke-miterlimit="10" fill="none"/><path d="M242.344 144.488l-21.348-11.1M237.598 148.398l-17.078-8.878" stroke-width="1.2" stroke="#000" stroke-miterlimit="10" fill="none"/><path d="M257.75 174.12h15v11h-15zm0 0" fill="#fff"/><g fill="#f00"><use xlink:href="#a" x="257.75" y="182.784"/><use xlink:href="#b" x="265.092" y="182.784"/></g><path d="M166.488 177.797h15v11h-15zm0 0" fill="#fff"/><g fill="#f00"><use xlink:href="#b" x="166.488" y="186.46"/><use xlink:href="#a" x="173.503" y="186.46"/></g><path d="M54.473 140.738l-.528-12.015" stroke-width="1.2" stroke="#f00" stroke-miterlimit="10" fill="none"/><path d="M53.945 128.723l-.53-12.02" stroke-width="1.2" stroke="#000" stroke-miterlimit="10" fill="none"/><path d="M50.473 135.238h8v11h-8zm0 0" fill="#fff"/><use xlink:href="#a" x="50.473" y="143.901" fill="#f00"/></g></svg>
